X: 25317
T: Manfrina Di Castelbolognese
R: jig
M: 6/8
K: Fmajor
A3|:d2d def|dA F Dde|f2 f fed|^ce c Aef|
g2 g gfe|a2 f d3|^cd e fga|1 a3 A3:|2 a3 A2f||
|:e2 d A2 a|g2 f A2 f|ed A cBA|c2 B g2g|
gf e dcB|B2 A Adf|f2e A^ce|1 d3A2f:|2 d3A3||
|:a2 a aga|b2 b2 ef|g2g gfg|a2 a2 z c|f2 f fef|
[1 g4 de|fe d fed|c3 c3:|2 g2 g2 ef|gf e gfe|fcAF3||

